frontend/public/svg/interface/home-1.svg

<svg width="162" height="158" viewBox="0 0 162 158" fill="none" xmlns="http://www.w3.org/2000/svg">
<g clip-path="url(#clip0)">
<path d="M151.246 50.9812C148.764 48.2069 146.129 45.5736 143.353 43.094C142.402 42.2123 141.453 41.3318 140.516 40.4398C137.937 37.982 135.347 35.5344 132.747 33.097C128.621 29.2127 124.355 25.1966 120.224 21.1809C114.965 16.0716 107.885 9.50842 99.6977 4.05968C94.1328 0.353513 88.2842 -0.54956 82.3142 1.36139C79.3636 2.30484 76.2631 3.37699 73.6455 5.15596C65.9279 10.3999 59.3197 15.2008 53.4432 19.8316C46.293 25.4669 39.1006 31.2916 32.1458 36.9243C26.6276 41.3932 20.9206 46.0148 15.2719 50.5135C9.49412 55.1137 5.90991 60.2206 4.31679 66.125C3.13443 70.3306 2.46027 74.6629 2.30882 79.0297C2.2082 83.4992 2.3348 88.0402 2.45749 92.4311C2.56007 96.1314 2.66718 99.9578 2.63667 103.714C2.62888 104.726 2.62478 105.739 2.62435 106.755C2.61202 112.325 2.59967 118.086 1.5746 123.523C-0.372984 133.844 3.58708 142.44 13.3386 149.076C20.4415 153.907 28.7388 154.885 36.7622 155.831C47.9388 157.12 59.1816 157.746 70.432 157.706C76.2345 157.706 82.2837 157.562 88.6601 157.277L99.6964 156.85C108.98 156.49 118.832 156.109 128.681 155.722C134.74 155.541 140.741 154.483 146.499 152.584C152.095 150.702 156.172 147.096 158.278 142.157C160.327 137.36 161.383 133.21 161.504 129.467C162.094 110.099 161.433 90.7126 159.525 71.4294C158.737 63.3245 155.952 56.4461 151.246 50.9812ZM59.345 144.063C59.4794 142.632 59.6047 141.28 59.6398 139.931C59.7895 133.826 59.9282 127.72 60.0559 121.614C60.1823 115.826 60.3134 110.039 60.4493 104.253C60.5435 100.368 60.6843 97.4006 60.9076 94.6301C61.2459 90.4135 62.7085 88.7132 66.7024 87.8803C71.1007 86.8861 75.5736 86.2574 80.0758 86.0012C83.6769 85.8711 87.3688 86.0239 90.9362 86.1754C93.1395 86.2678 95.4156 86.3646 97.6618 86.3926C99.6918 86.4186 100.695 87.3029 101.013 89.3582C101.273 91.0377 101.584 92.7393 101.885 94.3849C102.69 98.2361 103.205 102.143 103.422 106.072C103.682 115.106 103.632 123.987 103.579 133.39C103.559 136.988 103.545 140.62 103.537 144.286C88.7497 145.353 74.2337 145.755 59.212 145.529C59.2548 145.024 59.3009 144.54 59.345 144.063ZM114.84 107.529C114.295 101.02 112.845 94.5007 111.442 88.1956L110.999 86.1962C109.715 80.384 105.841 76.9269 99.797 76.1987C85.1135 74.4295 73.915 74.7221 63.4856 77.1512C54.4391 79.2585 49.7006 84.6865 49.0008 93.7445C48.5697 99.3245 48.6197 105.022 48.6684 110.531C48.682 112.062 48.695 113.592 48.6989 115.12C48.7132 120.887 48.784 126.747 48.8521 132.415C48.8924 135.769 48.9292 139.124 48.9625 142.478C48.9677 143.088 48.9118 143.719 48.8463 144.45C48.8288 144.645 48.8106 144.852 48.7924 145.066C41.3786 144.722 35.1405 144.184 28.9959 142.771C26.0382 142.092 22.6429 141.236 19.7773 139.677C14.5682 136.844 12.1357 132.947 12.3402 127.763C12.5096 123.476 12.5583 118.885 12.4888 113.728C12.359 104.017 12.1642 94.1443 11.9766 84.5987L11.8877 80.0531C11.7786 74.5465 12.8537 69.9463 15.1733 65.9917C16.3639 63.9606 17.6707 61.8538 19.3891 60.3615C28.1682 52.7392 36.1649 46.0077 43.8345 39.7788C52.1669 33.0166 61.8879 25.1775 71.8233 17.7756C75.3179 15.1715 79.289 13.195 84.182 11.0272C85.5297 10.4092 86.993 10.0835 88.4757 10.0709C90.8518 10.0709 93.2304 10.9557 95.6623 12.7321C102.502 17.7309 108.596 23.7529 114.489 29.5761C116.054 31.123 117.619 32.6706 119.201 34.2019C120.685 35.6397 122.168 37.0795 123.648 38.5213C128.771 43.5018 134.067 48.6526 139.4 53.5883C144.449 58.1274 147.647 64.3733 148.381 71.1284C149.252 78.7481 149.998 85.628 150.309 92.6547C150.741 102.384 150.974 113.065 151.024 125.308C150.967 128.691 150.511 132.055 149.666 135.33C149.373 136.862 148.614 138.265 147.492 139.346C146.37 140.428 144.941 141.134 143.402 141.369C142.479 141.548 141.556 141.743 140.634 141.938C138.235 142.5 135.803 142.907 133.352 143.159C129.281 143.484 125.212 143.614 120.903 143.755C119.258 143.809 117.585 143.863 115.874 143.929C115.841 143.055 115.806 142.209 115.772 141.384C115.686 139.25 115.603 137.236 115.559 135.233C115.494 132.351 115.475 129.414 115.457 126.574C115.412 120.322 115.371 113.858 114.84 107.529Z" fill="black"/>
</g>
<defs>
<clipPath id="clip0">
<rect width="161" height="158" fill="white" transform="translate(0.777344)"/>
</clipPath>
</defs>
</svg>

<svg xmlns="http://www.w3.org/2000/svg" width="162" height="158" fill="none" viewBox="0 0 162 158"><g clip-path="url(#a)"><path fill="#000" d="M151.246 50.981a100 100 0 0 0-7.893-7.887 295 295 0 0 1-2.837-2.654 1302 1302 0 0 0-7.769-7.343c-4.126-3.884-8.392-7.9-12.523-11.916-5.259-5.11-12.339-11.673-20.526-17.121C94.133.354 88.284-.55 82.314 1.36c-2.95.944-6.05 2.016-8.668 3.795C65.928 10.4 59.32 15.201 53.442 19.832c-7.15 5.635-14.342 11.46-21.297 17.092-5.518 4.47-11.225 9.09-16.874 13.59-5.778 4.6-9.362 9.707-10.955 15.611A54.7 54.7 0 0 0 2.309 79.03c-.1 4.47.026 9.01.148 13.401.103 3.7.21 7.527.18 11.283a418 418 0 0 0-.013 3.041c-.012 5.57-.024 11.331-1.05 16.768-1.947 10.321 2.013 18.917 11.765 25.553 7.103 4.831 15.4 5.809 23.423 6.755a285 285 0 0 0 33.67 1.875c5.802 0 11.852-.144 18.228-.429l11.036-.427c9.284-.36 19.136-.741 28.985-1.128a62.9 62.9 0 0 0 17.818-3.138c5.596-1.882 9.673-5.488 11.779-10.427 2.049-4.797 3.105-8.947 3.226-12.69a450 450 0 0 0-1.979-58.038c-.788-8.105-3.573-14.983-8.279-20.448m-91.901 93.082c.134-1.431.26-2.783.295-4.132q.224-9.158.416-18.317.189-8.682.393-17.361c.095-3.885.235-6.852.459-9.623.338-4.216 1.8-5.917 5.794-6.75a82 82 0 0 1 13.374-1.879c3.6-.13 7.293.023 10.86.174 2.203.093 4.48.19 6.726.218 2.03.026 3.033.91 3.351 2.965.26 1.68.571 3.381.872 5.027a78 78 0 0 1 1.537 11.687c.26 9.034.21 17.915.157 27.318q-.03 5.397-.042 10.896c-14.787 1.067-29.303 1.469-44.325 1.243.043-.505.089-.989.133-1.466m55.495-36.534c-.545-6.509-1.995-13.028-3.398-19.333l-.443-2c-1.284-5.812-5.158-9.27-11.202-9.997-14.683-1.77-25.882-1.477-36.311.952C54.439 79.26 49.7 84.686 49 93.745c-.431 5.58-.381 11.277-.333 16.786.014 1.531.027 3.061.03 4.589.015 5.767.086 11.627.154 17.295q.06 5.032.11 10.063c.006.61-.05 1.241-.116 1.972l-.054.616c-7.413-.344-13.651-.882-19.796-2.295-2.958-.679-6.353-1.535-9.219-3.094-5.209-2.833-7.641-6.73-7.437-11.914.17-4.287.218-8.878.149-14.035-.13-9.711-.325-19.584-.512-29.13l-.09-4.545c-.108-5.507.967-10.107 3.286-14.061 1.19-2.031 2.498-4.138 4.216-5.63 8.78-7.623 16.776-14.354 24.446-20.583 8.332-6.762 18.053-14.602 27.988-22.003 3.495-2.604 7.466-4.581 12.359-6.749a10.5 10.5 0 0 1 4.294-.956c2.376 0 4.754.885 7.186 2.661 6.84 4.999 12.934 11.02 18.827 16.844 1.565 1.547 3.13 3.095 4.712 4.626q2.226 2.157 4.447 4.32c5.123 4.98 10.419 10.13 15.752 15.066a27.6 27.6 0 0 1 8.981 17.54c.871 7.62 1.617 14.5 1.928 21.527.432 9.729.665 20.41.715 32.653a43 43 0 0 1-1.358 10.022 7.54 7.54 0 0 1-6.264 6.039c-.923.179-1.846.374-2.768.569a58 58 0 0 1-7.282 1.221c-4.071.325-8.14.455-12.449.596-1.645.054-3.318.108-5.029.174q-.05-1.31-.102-2.545c-.086-2.134-.169-4.148-.213-6.151a538 538 0 0 1-.102-8.659c-.045-6.252-.086-12.716-.617-19.045"/></g><defs><clipPath id="a"><path fill="#fff" d="M.777 0h161v158h-161z"/></clipPath></defs></svg>
